assets/img/icons/user.svg

<svg width="16" height="16" viewBox="0 0 16 16" fill="none" xmlns="http://www.w3.org/2000/svg">
<path d="M13.4145 11.9312C13.1197 11.2331 12.692 10.5989 12.1551 10.0641C11.6198 9.52767 10.9858 9.10001 10.2879 8.80469C10.2817 8.80156 10.2754 8.8 10.2692 8.79688C11.2426 8.09375 11.8754 6.94844 11.8754 5.65625C11.8754 3.51562 10.141 1.78125 8.00041 1.78125C5.85978 1.78125 4.12541 3.51562 4.12541 5.65625C4.12541 6.94844 4.75822 8.09375 5.73166 8.79844C5.72541 8.80156 5.71916 8.80312 5.71291 8.80625C5.01291 9.10156 4.38478 9.525 3.84572 10.0656C3.30933 10.6009 2.88166 11.235 2.58634 11.9328C2.29622 12.616 2.13975 13.3485 2.12541 14.0906C2.12499 14.1073 2.12791 14.1239 2.13401 14.1394C2.1401 14.1549 2.14924 14.1691 2.16089 14.181C2.17254 14.193 2.18646 14.2025 2.20184 14.2089C2.21721 14.2154 2.23372 14.2188 2.25041 14.2188H3.18791C3.25666 14.2188 3.31134 14.1641 3.31291 14.0969C3.34416 12.8906 3.82853 11.7609 4.68478 10.9047C5.57072 10.0188 6.74728 9.53125 8.00041 9.53125C9.25353 9.53125 10.4301 10.0188 11.316 10.9047C12.1723 11.7609 12.6567 12.8906 12.6879 14.0969C12.6895 14.1656 12.7442 14.2188 12.8129 14.2188H13.7504C13.7671 14.2188 13.7836 14.2154 13.799 14.2089C13.8143 14.2025 13.8283 14.193 13.8399 14.181C13.8516 14.1691 13.8607 14.1549 13.8668 14.1394C13.8729 14.1239 13.8758 14.1073 13.8754 14.0906C13.8598 13.3437 13.7051 12.6172 13.4145 11.9312V11.9312ZM8.00041 8.34375C7.28322 8.34375 6.60822 8.06406 6.10041 7.55625C5.59259 7.04844 5.31291 6.37344 5.31291 5.65625C5.31291 4.93906 5.59259 4.26406 6.10041 3.75625C6.60822 3.24844 7.28322 2.96875 8.00041 2.96875C8.71759 2.96875 9.39259 3.24844 9.90041 3.75625C10.4082 4.26406 10.6879 4.93906 10.6879 5.65625C10.6879 6.37344 10.4082 7.04844 9.90041 7.55625C9.39259 8.06406 8.71759 8.34375 8.00041 8.34375Z" fill="white"/>
</svg>

<svg width="16" height="16" fill="none" xmlns="http://www.w3.org/2000/svg"><path d="M13.415 11.931a5.844 5.844 0 00-1.26-1.867 5.869 5.869 0 00-1.867-1.26l-.019-.007a3.874 3.874 0 10-4.538.002l-.018.007c-.7.296-1.328.719-1.867 1.26a5.87 5.87 0 00-1.72 4.025.125.125 0 00.124.128h.938a.125.125 0 00.125-.122 4.658 4.658 0 011.372-3.192A4.657 4.657 0 018 9.53c1.254 0 2.43.488 3.316 1.374a4.658 4.658 0 011.372 3.192.124.124 0 00.125.122h.937a.125.125 0 00.125-.128 5.823 5.823 0 00-.46-2.16zM8 8.344a2.67 2.67 0 01-1.9-.788 2.67 2.67 0 01-.787-1.9c0-.717.28-1.392.787-1.9A2.67 2.67 0 018 2.97c.718 0 1.393.28 1.9.787a2.67 2.67 0 01.788 1.9 2.67 2.67 0 01-.788 1.9 2.67 2.67 0 01-1.9.788z" fill="#fff"/></svg>
